X:1
T: Eyes Right
C:
R:Reel
Q: 232
K:G
M:4/4
L:1/8
D|DG GF GA BG|EA A^G AB cA|FD FA d3c|Bc AB GD B,C|
DG GF GA BG|EA A^G AB cA|FD FA d3c|BG AB G2 FG|
|:AA FA dd ed|BB GB ee fe|^cc Ac eg fe|d^c BA GE FG|
AA FA dd ed|BB GB ee fg|af dA ge ^cA|1d2 f2 d2 fg:|2df ed cA FE|
DG GF GA BG|EA A^G AB cA|FD FA d3c|Bc AB GD B,C|
DG GF GA BG|EA A^G AB cA|FD FA d3c|BG AB G3||
